X:1
T:Patrick Kelly
T:Patrick Kelly
T:Carolan
C:Carolan
L:1/8
M:6/8
K:F
V:1 treble 
V:1
 G2 d dB/c/d | cAF (A/B/c)A |{G} FDD DGG | AFF Acc | (d/e/f)f fg/f/e | (f3 f2) g | agf{f} edc | %7
 agf{f} edc | AFA AFA | c3{de} d3 ||{G} FDD DGG |{G} FDD FAA | c2 c cAF | cAF c2 c | d2 d dAd | %15
 cAc dfd | cAF fAF | G3 G3 || %18

